client/src/assets/images/icon-exposure-white.svg

<svg fill="none" height="92" viewBox="0 0 92 92" width="92" xmlns="http://www.w3.org/2000/svg"><g fill="#fff"><path d="m46.5467 29c4.8697 0 8.8029 3.5775 8.8029 8.092 0 4.4293-3.9332 8.0068-8.8029 8.0068-4.9633 0-8.8966-3.5775-8.8966-8.0068 0-4.5145 3.9333-8.092 8.8966-8.092zm0 1.7036c-3.9332 0-7.0236 2.8109-7.0236 6.3884 0 3.4923 3.0904 6.3032 7.0236 6.3032 3.8395 0 6.9299-2.8109 6.9299-6.3032 0-3.5775-3.0904-6.3884-6.9299-6.3884z"/><path d="m35.1219 57.45c0 .4259-.4683.7666-1.0301.6814-.4683 0-.8429-.4259-.7492-.9369.7492-6.0477 6.368-10.7326 13.2043-10.7326 6.7426 0 12.4551 4.6849 13.2043 10.7326 0 .511-.3746.9369-.8428.9369-.5619.0852-1.0301-.2555-1.0301-.6814-.6556-5.2811-5.5252-9.2845-11.3314-9.2845s-10.7695 4.0034-11.425 9.2845z"/><path d="m63.8717 35.8994c3.8395 0 6.9299 2.8109 6.9299 6.2181 0 3.4923-3.0904 6.3032-6.9299 6.3032-3.7459 0-6.8363-2.8109-6.8363-6.3032 0-3.4072 3.0904-6.2181 6.8363-6.2181zm0 1.7036c-2.7158 0-4.9633 2.0443-4.9633 4.5145 0 2.5553 2.2475 4.5996 4.9633 4.5996 2.8094 0 5.057-2.0443 5.057-4.5996 0-2.4702-2.2476-4.5145-5.057-4.5145z"/><path d="m60.1255 51.8278c-.4682.2556-1.0301.0852-1.3111-.3407-.1872-.4259 0-.937.4683-1.1925 1.4047-.5962 2.9967-1.0221 4.5887-1.0221 5.057 0 9.3648 3.4071 10.114 7.9216.0936.4259-.281.937-.7492.937-.5619.0851-1.0301-.2556-1.1238-.6815-.5619-3.7478-4.1205-6.4736-8.241-6.4736-1.311 0-2.6221.3408-3.7459.8518z"/><path d="m29.1284 35.8994c3.7459 0 6.8363 2.8109 6.8363 6.2181 0 3.4923-3.0904 6.3032-6.8363 6.3032-3.8395 0-6.9299-2.8109-6.9299-6.3032 0-3.4072 3.0904-6.2181 6.9299-6.2181zm0 1.7036c-2.8094 0-5.057 2.0443-5.057 4.5145 0 2.5553 2.2476 4.5996 5.057 4.5996 2.7158 0 4.9633-2.0443 4.9633-4.5996 0-2.4702-2.2475-4.5145-4.9633-4.5145z"/><path d="m20.8873 57.4496c-.0937.4259-.5619.7666-1.0301.6815-.5619 0-.9365-.5111-.8429-.937.7492-4.5145 5.057-7.9216 10.114-7.9216 1.592 0 3.184.4259 4.6824 1.0221.3746.2555.5619.7666.3746 1.1925-.281.4259-.8429.5963-1.3111.3407-1.1238-.511-2.4348-.8518-3.7459-.8518-4.1205 0-7.6791 2.7258-8.241 6.4736z"/></g></svg>

<svg width="92" height="92" viewBox="0 0 92 92" fill="none" xmlns="http://www.w3.org/2000/svg">
<path d="M46.5467 29C51.4164 29 55.3496 32.5775 55.3496 37.092C55.3496 41.5213 51.4164 45.0988 46.5467 45.0988C41.5834 45.0988 37.6501 41.5213 37.6501 37.092C37.6501 32.5775 41.5834 29 46.5467 29ZM46.5467 30.7036C42.6135 30.7036 39.5231 33.5145 39.5231 37.092C39.5231 40.5843 42.6135 43.3952 46.5467 43.3952C50.3862 43.3952 53.4766 40.5843 53.4766 37.092C53.4766 33.5145 50.3862 30.7036 46.5467 30.7036Z" fill="white"/>
<path d="M35.1219 57.45C35.1219 57.8759 34.6536 58.2166 34.0918 58.1314C33.6235 58.1314 33.2489 57.7055 33.3426 57.1945C34.0918 51.1468 39.7106 46.4619 46.5469 46.4619C53.2895 46.4619 59.002 51.1468 59.7512 57.1945C59.7512 57.7055 59.3766 58.1314 58.9084 58.1314C58.3465 58.2166 57.8783 57.8759 57.8783 57.45C57.2227 52.1689 52.3531 48.1655 46.5469 48.1655C40.7407 48.1655 35.7774 52.1689 35.1219 57.45Z" fill="white"/>
<path d="M63.8717 35.8994C67.7112 35.8994 70.8016 38.7103 70.8016 42.1175C70.8016 45.6098 67.7112 48.4207 63.8717 48.4207C60.1258 48.4207 57.0354 45.6098 57.0354 42.1175C57.0354 38.7103 60.1258 35.8994 63.8717 35.8994ZM63.8717 37.603C61.1559 37.603 58.9084 39.6473 58.9084 42.1175C58.9084 44.6728 61.1559 46.7171 63.8717 46.7171C66.6811 46.7171 68.9287 44.6728 68.9287 42.1175C68.9287 39.6473 66.6811 37.603 63.8717 37.603Z" fill="white"/>
<path d="M60.1255 51.8278C59.6573 52.0834 59.0954 51.913 58.8144 51.4871C58.6272 51.0612 58.8144 50.5501 59.2827 50.2946C60.6874 49.6984 62.2794 49.2725 63.8714 49.2725C68.9284 49.2725 73.2362 52.6796 73.9854 57.1941C74.079 57.62 73.7044 58.1311 73.2362 58.1311C72.6743 58.2162 72.2061 57.8755 72.1124 57.4496C71.5505 53.7018 67.9919 50.976 63.8714 50.976C62.5604 50.976 61.2493 51.3168 60.1255 51.8278Z" fill="white"/>
<path d="M29.1284 35.8994C32.8743 35.8994 35.9647 38.7103 35.9647 42.1175C35.9647 45.6098 32.8743 48.4207 29.1284 48.4207C25.2889 48.4207 22.1985 45.6098 22.1985 42.1175C22.1985 38.7103 25.2889 35.8994 29.1284 35.8994ZM29.1284 37.603C26.319 37.603 24.0714 39.6473 24.0714 42.1175C24.0714 44.6728 26.319 46.7171 29.1284 46.7171C31.8442 46.7171 34.0917 44.6728 34.0917 42.1175C34.0917 39.6473 31.8442 37.603 29.1284 37.603Z" fill="white"/>
<path d="M20.8873 57.4496C20.7936 57.8755 20.3254 58.2162 19.8572 58.1311C19.2953 58.1311 18.9207 57.62 19.0143 57.1941C19.7635 52.6796 24.0713 49.2725 29.1283 49.2725C30.7203 49.2725 32.3123 49.6984 33.8107 50.2946C34.1853 50.5501 34.3726 51.0612 34.1853 51.4871C33.9043 51.913 33.3424 52.0834 32.8742 51.8278C31.7504 51.3168 30.4394 50.976 29.1283 50.976C25.0078 50.976 21.4492 53.7018 20.8873 57.4496Z" fill="white"/>
</svg>
